static/logos/calendly-glyph-color.svg

<svg width="50" height="52" viewBox="0 0 50 52" fill="none" xmlns="http://www.w3.org/2000/svg">
<g clip-path="url(#clip0_1_3307)">
<path d="M34.2599 33.1701C32.6431 34.605 30.6238 36.3905 26.9626 36.3905H24.7732C22.1238 36.3905 19.7141 35.4275 17.9892 33.6819C16.3043 31.9763 15.3768 29.642 15.3768 27.108V24.1124C15.3768 21.5784 16.3043 19.2441 17.9892 17.5384C19.7141 15.7929 22.1238 14.8313 24.7732 14.8313H26.9626C30.6283 14.8313 32.6431 16.6154 34.2599 18.0503C35.9389 19.5296 37.3871 20.8225 41.2496 20.8225C41.8386 20.8223 42.4268 20.7753 43.0084 20.6819L42.9951 20.6479C42.7638 20.0734 42.4925 19.5158 42.183 18.9793L39.6016 14.5074C38.4376 12.4914 36.7633 10.8174 34.7473 9.6536C32.7312 8.48976 30.4444 7.87709 28.1164 7.8772H22.9522C20.6243 7.87709 18.3374 8.48976 16.3213 9.6536C14.3053 10.8174 12.6311 12.4914 11.467 14.5074L8.88566 18.9793C7.72198 20.9954 7.10938 23.2824 7.10938 25.6102C7.10938 27.938 7.72198 30.225 8.88566 32.2411L11.467 36.713C12.6311 38.729 14.3053 40.4029 16.3213 41.5668C18.3374 42.7306 20.6243 43.3433 22.9522 43.3432H28.1164C30.4444 43.3433 32.7312 42.7306 34.7473 41.5668C36.7633 40.4029 38.4376 38.729 39.6016 36.713L42.183 32.2485C42.4925 31.712 42.7638 31.1544 42.9951 30.5799L43.0084 30.5473C42.4271 30.4507 41.8389 30.4013 41.2496 30.3994C37.3871 30.3994 35.9389 31.6849 34.2599 33.1716" fill="#006BFF"/>
<path d="M26.9572 17.5459H24.7679C20.7353 17.5459 18.0859 20.4261 18.0859 24.1125V27.108C18.0859 30.7944 20.7353 33.6746 24.7679 33.6746H26.9572C32.833 33.6746 32.3714 27.6835 41.2442 27.6835C42.0849 27.6824 42.9238 27.7598 43.7501 27.9142C44.0194 26.39 44.0194 24.8304 43.7501 23.3063C42.9237 23.46 42.0849 23.5372 41.2442 23.537C32.3685 23.537 32.833 17.5459 26.9572 17.5459Z" fill="#006BFF"/>
<path d="M48.8524 30.1035C47.3414 28.9969 45.5988 28.2477 43.7562 27.9127C43.7562 27.929 43.7562 27.9423 43.7562 27.9571C43.5976 28.8403 43.3497 29.7051 43.0166 30.5384C44.5388 30.7742 45.983 31.3689 47.2296 32.2736C47.2296 32.2855 47.2222 32.3003 47.2178 32.3136C45.6132 37.5091 42.1984 41.9568 37.5934 44.8486C32.9885 47.7405 27.499 48.8847 22.1222 48.0733C16.7454 47.2619 11.838 44.5489 8.29141 40.427C4.74482 36.3051 2.79438 31.0479 2.79438 25.6102C2.79438 20.1724 4.74482 14.9152 8.29141 10.7933C11.838 6.67141 16.7454 3.95838 22.1222 3.14702C27.499 2.33567 32.9885 3.47984 37.5934 6.37169C42.1984 9.26355 45.6132 13.7112 47.2178 18.9068C47.2178 18.9201 47.2252 18.9349 47.2296 18.9467C45.9832 19.8514 44.5388 20.4458 43.0166 20.6804C43.3494 21.5148 43.5972 22.3806 43.7562 23.2648C43.7553 23.2785 43.7553 23.2924 43.7562 23.3062C45.5988 22.9717 47.3413 22.223 48.8524 21.1168C50.305 20.0414 50.024 18.8269 49.8036 18.1079C48.0076 12.2827 44.1812 7.29502 39.02 4.05134C33.8589 0.807632 27.7052 -0.476843 21.6774 0.431311C15.6496 1.33946 10.1475 4.37997 6.17112 9.00034C2.1947 13.6207 0.0078125 19.5143 0.0078125 25.6102C0.0078125 31.706 2.1947 37.5997 6.17112 42.2199C10.1475 46.8403 15.6496 49.8809 21.6774 50.789C27.7052 51.6972 33.8589 50.4127 39.02 47.169C44.1812 43.9253 48.0076 38.9377 49.8036 33.1124C50.024 32.3935 50.305 31.179 48.8524 30.1035Z" fill="#006BFF"/>
<path d="M43.0067 20.6805C42.4253 20.7771 41.8371 20.8265 41.2478 20.8284C37.3854 20.8284 35.9371 19.5429 34.2596 18.0562C32.6413 16.6213 30.6265 14.8358 26.9608 14.8358H24.7714C22.1206 14.8358 19.7123 15.7988 17.9874 17.5444C16.3025 19.25 15.375 21.5843 15.375 24.1184V27.1139C15.375 29.6479 16.3025 31.9823 17.9874 33.6879C19.7123 35.4334 22.1206 36.395 24.7714 36.395H26.9608C30.6265 36.395 32.6413 34.611 34.2596 33.1761C35.9371 31.6968 37.3854 30.4039 41.2478 30.4039C41.8368 30.404 42.425 30.4511 43.0067 30.5444C43.3405 29.7114 43.5883 28.8465 43.7463 27.963C43.7472 27.9482 43.7472 27.9334 43.7463 27.9187C42.9198 27.7654 42.0809 27.6886 41.2404 27.6894C32.3646 27.6894 32.8291 33.682 26.9534 33.682H24.7641C20.7315 33.682 18.0821 30.8003 18.0821 27.1139V24.1124C18.0821 20.4261 20.7315 17.5459 24.7641 17.5459H26.9534C32.8291 17.5459 32.3676 23.5355 41.2404 23.5355C42.0811 23.537 42.92 23.4602 43.7463 23.3062C43.7463 23.2929 43.7463 23.2796 43.7463 23.2648C43.5873 22.3806 43.3395 21.5148 43.0067 20.6805Z" fill="#0AE8F0"/>
<path d="M43.0067 20.6805C42.4253 20.7771 41.8371 20.8265 41.2478 20.8284C37.3854 20.8284 35.9371 19.5429 34.2596 18.0562C32.6413 16.6213 30.6265 14.8358 26.9608 14.8358H24.7714C22.1206 14.8358 19.7123 15.7988 17.9874 17.5444C16.3025 19.25 15.375 21.5843 15.375 24.1184V27.1139C15.375 29.6479 16.3025 31.9823 17.9874 33.6879C19.7123 35.4334 22.1206 36.395 24.7714 36.395H26.9608C30.6265 36.395 32.6413 34.611 34.2596 33.1761C35.9371 31.6968 37.3854 30.4039 41.2478 30.4039C41.8368 30.404 42.425 30.4511 43.0067 30.5444C43.3405 29.7114 43.5883 28.8465 43.7463 27.963C43.7472 27.9482 43.7472 27.9334 43.7463 27.9187C42.9198 27.7654 42.0809 27.6886 41.2404 27.6894C32.3646 27.6894 32.8291 33.682 26.9534 33.682H24.7641C20.7315 33.682 18.0821 30.8003 18.0821 27.1139V24.1124C18.0821 20.4261 20.7315 17.5459 24.7641 17.5459H26.9534C32.8291 17.5459 32.3676 23.5355 41.2404 23.5355C42.0811 23.537 42.92 23.4602 43.7463 23.3062C43.7463 23.2929 43.7463 23.2796 43.7463 23.2648C43.5873 22.3806 43.3395 21.5148 43.0067 20.6805Z" fill="#0AE8F0"/>
</g>
<defs>
<clipPath id="clip0_1_3307">
<rect width="50" height="51.1834" fill="white"/>
</clipPath>
</defs>
</svg>

<svg xmlns="http://www.w3.org/2000/svg" width="61.538" height="64" fill="none" viewBox="0 0 50 52"><g clip-path="url(#a)"><path fill="#006BFF" d="M34.26 33.17c-1.617 1.435-3.636 3.22-7.297 3.22h-2.19c-2.65 0-5.059-.962-6.784-2.708-1.685-1.706-2.612-4.04-2.612-6.574v-2.996c0-2.534.927-4.868 2.612-6.574 1.725-1.745 4.135-2.707 6.784-2.707h2.19c3.665 0 5.68 1.784 7.297 3.22 1.679 1.479 3.127 2.772 6.99 2.772.589 0 1.177-.048 1.758-.141l-.013-.034a13.22 13.22 0 0 0-.812-1.669l-2.581-4.472a13.261 13.261 0 0 0-11.486-6.63h-5.164a13.262 13.262 0 0 0-11.485 6.63L8.886 18.98a13.265 13.265 0 0 0 0 13.262l2.581 4.472a13.262 13.262 0 0 0 11.485 6.63h5.164a13.262 13.262 0 0 0 11.486-6.63l2.581-4.465c.31-.536.58-1.094.812-1.668l.013-.033a10.944 10.944 0 0 0-1.758-.148c-3.863 0-5.311 1.286-6.99 2.773"/><path fill="#006BFF" d="M26.957 17.546h-2.19c-4.032 0-6.681 2.88-6.681 6.567v2.995c0 3.686 2.65 6.567 6.682 6.567h2.19c5.875 0 5.413-5.991 14.286-5.991.84-.002 1.68.076 2.506.23.27-1.524.27-3.084 0-4.608-.826.154-1.665.231-2.506.231-8.876 0-8.411-5.991-14.287-5.991Z"/><path fill="#006BFF" d="M48.852 30.104a12.37 12.37 0 0 0-5.096-2.191v.044a13.276 13.276 0 0 1-.74 2.581 9.701 9.701 0 0 1 4.214 1.736c0 .011-.008.026-.012.04a22.717 22.717 0 1 1 0-13.407c0 .013.007.028.012.04a9.683 9.683 0 0 1-4.213 1.733c.332.835.58 1.7.74 2.585-.002.014-.002.027 0 .041a12.367 12.367 0 0 0 5.095-2.19c1.453-1.075 1.172-2.29.952-3.008a25.463 25.463 0 1 0 0 15.004c.22-.718.501-1.933-.952-3.009Z"/><path fill="#0AE8F0" d="M43.007 20.68c-.582.097-1.17.146-1.76.148-3.862 0-5.31-1.285-6.987-2.772-1.619-1.435-3.633-3.22-7.3-3.22h-2.189c-2.65 0-5.059.963-6.784 2.708-1.684 1.706-2.612 4.04-2.612 6.574v2.996c0 2.534.927 4.868 2.612 6.574 1.725 1.745 4.134 2.707 6.784 2.707h2.19c3.666 0 5.68-1.784 7.299-3.219 1.677-1.48 3.125-2.772 6.988-2.772.589 0 1.177.047 1.759.14.334-.833.581-1.698.74-2.581v-.044a13.67 13.67 0 0 0-2.507-.23c-8.875 0-8.41 5.993-14.287 5.993h-2.189c-4.032 0-6.682-2.882-6.682-6.568v-3.002c0-3.686 2.65-6.566 6.682-6.566h2.19c5.875 0 5.414 5.99 14.286 5.99.841.001 1.68-.076 2.506-.23v-.041a13.354 13.354 0 0 0-.74-2.585Z"/><path fill="#0AE8F0" d="M43.007 20.68c-.582.097-1.17.146-1.76.148-3.862 0-5.31-1.285-6.987-2.772-1.619-1.435-3.633-3.22-7.3-3.22h-2.189c-2.65 0-5.059.963-6.784 2.708-1.684 1.706-2.612 4.04-2.612 6.574v2.996c0 2.534.927 4.868 2.612 6.574 1.725 1.745 4.134 2.707 6.784 2.707h2.19c3.666 0 5.68-1.784 7.299-3.219 1.677-1.48 3.125-2.772 6.988-2.772.589 0 1.177.047 1.759.14.334-.833.581-1.698.74-2.581v-.044a13.67 13.67 0 0 0-2.507-.23c-8.875 0-8.41 5.993-14.287 5.993h-2.189c-4.032 0-6.682-2.882-6.682-6.568v-3.002c0-3.686 2.65-6.566 6.682-6.566h2.19c5.875 0 5.414 5.99 14.286 5.99.841.001 1.68-.076 2.506-.23v-.041a13.354 13.354 0 0 0-.74-2.585Z"/></g><defs><clipPath id="a"><path fill="#fff" d="M0 0h50v51.183H0z"/></clipPath></defs></svg>
